X:361
T:John Cheap, the Chapman
R:Reel
C:Nathaniel Gow
B:The Athole Collection
M:C|
L:1/8
K:G Minor
A|G2 dG BGBg|G2dB AFFA|G2dG BcdB|Afcf AFF:|
A|Gggd BcdB|GggB AFFA|Gggd BcdB|Acfc AFFA|
Gggd BcdB|GggB AFFA|Ggbg a^fg=e|=fcdB AFF||

